packages/astro-components-stencil/src/icons/announcement.svg

<svg xmlns="http://www.w3.org/2000/svg" viewBox="0 0 24 24"><g xmlns="http://www.w3.org/2000/svg" id="announcement" fill-rule="nonzero">
            <path d="M20 2H4c-1.1 0-2 .9-2 2v18l4-4h14c1.1 0 2-.9 2-2V4c0-1.1-.9-2-2-2zm-8 9c-.55 0-1-.45-1-1V6c0-.55.45-1 1-1s1 .45 1 1v4c0 .55-.45 1-1 1zm1 4h-2v-2h2v2z"/>
        </g></svg>

<svg width="24" height="24" viewBox="0 0 24 24" fill="none" xmlns="http://www.w3.org/2000/svg">
<path fill-rule="evenodd" clip-rule="evenodd" d="M20 2H4C2.9 2 2 2.9 2 4V22L6 18H20C21.1 18 22 17.1 22 16V4C22 2.9 21.1 2 20 2ZM12 11C11.45 11 11 10.55 11 10V6C11 5.45 11.45 5 12 5C12.55 5 13 5.45 13 6V10C13 10.55 12.55 11 12 11ZM11 13V15H13V13H11Z" fill="black"/>
</svg>
